assets/wallet_import.svg

<svg fill="none" height="22" viewBox="0 0 23 22" width="23" xmlns="http://www.w3.org/2000/svg"><path d="m22.2579 0h-8.6009c-.2914 0-.5278.238499-.5278.533898v10.515102c0 .2951.2364.5339.5278.5339h1.7584l-4.0224 5.2867-4.02146-5.2867h1.75836c.29142 0 .52778-.2388.52778-.5339v-10.515102c0-.295399-.23636-.533898-.52778-.533898h-8.602122c-.291415 0-.527778.238499-.527778.533898v20.932202c0 .2951.236363.5339.527778.5339h21.730122c.2926 0 .5278-.2388.5278-.5339v-20.932202c0-.295399-.2352-.533898-.5278-.533898z" fill="#05989a"/></svg>

<svg width="23" height="22" viewBox="0 0 23 22" fill="none" xmlns="http://www.w3.org/2000/svg">
<path d="M22.2579 0H13.657C13.3656 0 13.1292 0.238499 13.1292 0.533898V11.049C13.1292 11.3441 13.3656 11.5829 13.657 11.5829H15.4154L11.393 16.8696L7.37154 11.5829H9.1299C9.42132 11.5829 9.65768 11.3441 9.65768 11.049V0.533898C9.65768 0.238499 9.42132 0 9.1299 0H0.527778C0.236363 0 0 0.238499 0 0.533898V21.4661C0 21.7612 0.236363 22 0.527778 22H22.2579C22.5505 22 22.7857 21.7612 22.7857 21.4661V0.533898C22.7857 0.238499 22.5505 0 22.2579 0Z" fill="#05989A"/>
</svg>
